icons/banking/icon_card-expences_m_white.svg

<svg width="24" height="24" viewBox="0 0 24 24" xmlns="http://www.w3.org/2000/svg"><g fill="none" fill-rule="evenodd"><path d="M0 0h24v24H0z"/><path d="M6 14H3.5A2.503 2.503 0 0 1 1 11.5v-8C1 2.122 2.121 1 3.5 1h13C17.879 1 19 2.122 19 3.5V7h-1V3.5c0-.827-.673-1.5-1.5-1.5h-13C2.673 2 2 2.673 2 3.5v8c0 .827.673 1.5 1.5 1.5H6v1z" fill="#FFF"/><path fill="#FFF" opacity=".3" d="M1.5 5h17v2h-17zM15 16l4-6.928A7.999 7.999 0 0 1 23 16h-8z"/><path d="M15.497 23c-4.136 0-7.5-3.364-7.5-7.5s3.364-7.5 7.5-7.5v1a6.508 6.508 0 0 0-6.5 6.5c0 3.584 2.916 6.5 6.5 6.5 2.921 0 5.498-1.983 6.269-4.822l.965.262c-.888 3.274-3.863 5.56-7.234 5.56z" fill="#FFF"/><path d="M17.175 9.231A6.44 6.44 0 0 0 15.497 9V8c.636 0 1.288.089 1.939.266l-.261.965z" fill="#FFF"/></g></svg>

<?xml version="1.0" encoding="UTF-8"?>
<svg width="24px" height="24px" viewBox="0 0 24 24" version="1.1" xmlns="http://www.w3.org/2000/svg" xmlns:xlink="http://www.w3.org/1999/xlink">
    <!-- Generator: Sketch 48.2 (47327) - http://www.bohemiancoding.com/sketch -->
    <title>icon_costs-card_m_white</title>
    <desc>Created with Sketch.</desc>
    <defs></defs>
    <g id="mobile" stroke="none" stroke-width="1" fill="none" fill-rule="evenodd" transform="translate(-212.000000, -1125.000000)">
        <g id="Headings" transform="translate(64.000000, 77.000000)"></g>
        <g id="icon_tool_costs_card__m__white" transform="translate(212.000000, 1125.000000)">
            <g id="art">
                <rect id="Rectangle-path" x="0" y="0" width="24" height="24"></rect>
                <path d="M6,14 L3.5,14 C2.121,14 1,12.878 1,11.5 L1,3.5 C1,2.122 2.121,1 3.5,1 L16.5,1 C17.879,1 19,2.122 19,3.5 L19,7 L18,7 L18,3.5 C18,2.673 17.327,2 16.5,2 L3.5,2 C2.673,2 2,2.673 2,3.5 L2,11.5 C2,12.327 2.673,13 3.5,13 L6,13 L6,14 L6,14 Z" id="Shape" fill="#FFFFFF"></path>
                <rect id="Rectangle-path" fill="#FFFFFF" opacity="0.3" x="1.5" y="5" width="17" height="2"></rect>
                <path d="M15,16 L19,9.072 C20.216,9.774 21.226,10.784 21.928,12 C22.63,13.216 23,14.596 23,16 L15,16 L15,16 Z" id="Shape" fill="#FFFFFF" opacity="0.3"></path>
                <path d="M15.497,23 C11.361,23 7.997,19.636 7.997,15.5 C7.997,11.364 11.361,8 15.497,8 L15.497,9 C11.913,9 8.997,11.916 8.997,15.5 C8.997,19.084 11.913,22 15.497,22 C18.418,22 20.995,20.017 21.766,17.178 L22.731,17.44 C21.843,20.714 18.868,23 15.497,23 L15.497,23 Z" id="Shape" fill="#FFFFFF"></path>
                <path d="M17.175,9.231 C16.609,9.078 16.045,9 15.497,9 L15.497,8 C16.133,8 16.785,8.089 17.436,8.266 L17.175,9.231 L17.175,9.231 Z" id="Shape" fill="#FFFFFF"></path>
            </g>
        </g>
    </g>
</svg>
